icons/chevron-double-right.svg

<svg width="24" height="24" viewBox="0 0 24 24" fill="none" xmlns="http://www.w3.org/2000/svg">
<path fill-rule="evenodd" clip-rule="evenodd" d="M6.81568 7.8113C7.11318 7.52309 7.588 7.53062 7.87621 7.82813L10.9727 11.0245C11.2348 11.2888 11.4125 11.6447 11.4125 12.0375C11.4125 12.4182 11.2423 12.7761 10.9319 13.0175L7.87621 16.1718C7.588 16.4693 7.11318 16.4769 6.81568 16.1887C6.51817 15.9004 6.51064 15.4256 6.79884 15.1281L9.82924 12L6.79884 8.87182C6.51064 8.57432 6.51817 8.0995 6.81568 7.8113ZM9.92435 12.1007C9.92431 12.1007 9.92397 12.1002 9.92343 12.0992L9.92435 12.1007Z" fill="black"/>
<path fill-rule="evenodd" clip-rule="evenodd" d="M12.8157 7.8113C13.1132 7.52309 13.588 7.53062 13.8762 7.82813L16.9727 11.0245C17.2348 11.2888 17.4125 11.6447 17.4125 12.0375C17.4125 12.4182 17.2423 12.7761 16.9319 13.0175L13.8762 16.1718C13.588 16.4693 13.1132 16.4769 12.8157 16.1887C12.5182 15.9004 12.5106 15.4256 12.7988 15.1281L15.8292 12L12.7988 8.87182C12.5106 8.57432 12.5182 8.0995 12.8157 7.8113ZM15.9243 12.1007C15.9243 12.1007 15.924 12.1002 15.9234 12.0992L15.9243 12.1007Z" fill="black"/>
</svg>

<svg xmlns="http://www.w3.org/2000/svg" fill="none" viewBox="0 0 24 24">
  <path fill="#000" fill-rule="evenodd" d="M6.816 7.811a.75.75 0 0 1 1.06.017l3.097 3.196c.262.265.44.62.44 1.014 0 .38-.17.738-.481.98l-3.056 3.154A.75.75 0 1 1 6.8 15.128L9.829 12 6.8 8.872a.75.75 0 0 1 .017-1.06Zm3.108 4.29v-.002.002Zm2.892-4.29a.75.75 0 0 1 1.06.017l3.097 3.196c.262.265.44.62.44 1.014 0 .38-.17.738-.481.98l-3.056 3.154a.75.75 0 1 1-1.077-1.044L15.829 12 12.8 8.872a.75.75 0 0 1 .017-1.06Zm3.108 4.29v-.002.002Z" clip-rule="evenodd"/>
</svg>
